svgs/sharp-regular/hockey-stick-puck.svg

<svg xmlns="http://www.w3.org/2000/svg" viewBox="0 0 640 512"><!--! Font Awesome Pro 6.6.0 by @fontawesome - https://fontawesome.com License - https://fontawesome.com/license (Commercial License) Copyright 2024 Fonticons, Inc. --><path d="M307.9 320L466.7 13 509.3 35l-240 464-6.7 13L248 512 24 512 0 512l0-24L0 344l0-24 24 0 280 0 3.9 0zM283 368l-139 0 0 96 89.4 0L283 368zM48 368l0 96 48 0 0-96-48 0zm384 64l0 32 160 0 0-32-160 0zm-48-48l48 0 160 0 48 0 0 48 0 32 0 48-48 0-160 0-48 0 0-48 0-32 0-48z"/></svg>

<svg xmlns="http://www.w3.org/2000/svg" viewBox="0 0 640 512"><!--! Font Awesome Pro 6.4.0 by @fontawesome - https://fontawesome.com License - https://fontawesome.com/license (Commercial License) Copyright 2023 Fonticons, Inc. --><path d="M307.9 320L466.7 13 509.3 35l-240 464-6.7 13H248 24 0V488 344 320H24 304h3.9zM283 368H144v96h89.4L283 368zM48 368v96H96V368H48zm384 64v32H592V432H432zm-48-48h48H592h48v48 32 48H592 432 384V464 432 384z"/></svg>
